X:10281
T:March,bass part. JNu.15
M:4/4
Q:120
S:James Nuttall MS,c1830?,Rossendale,East Lancs.
R:March
O:England
A:East Lancashire
Z:Chris Partington
K:C
"Thirdo,read as bass clef"
A4A4|A2A>AA2"p"A2|"read as bass clef"e2e2A2c2|e2e>e edcB|
"f"A4e4|a2A2A4|ABcde2E2|A2A>AA2z2::!
e4e2e2|A2e2c2A2|A2A2A2B2|e2e>ee2z2|
A4E4|A2E2A4|A>Bc>de2E2A2A>AA2z2:|]


